tipitek/img/info-card-3.svg

<svg width="40" height="40" viewBox="0 0 40 40" fill="none" xmlns="http://www.w3.org/2000/svg">
<g clip-path="url(#clip0_971_4242)">
<path d="M23.8437 5.49068C25.2078 5.84284 26.5154 6.38563 27.728 7.10302L28.9536 5.87724C29.1867 5.64399 29.4635 5.45897 29.7682 5.33276C30.0728 5.20655 30.3994 5.14163 30.7291 5.1417C31.0588 5.1417 31.3852 5.20666 31.6897 5.33287C31.9943 5.45908 32.271 5.64406 32.504 5.87724L34.2788 7.65216C34.512 7.88516 34.697 8.16184 34.8232 8.46637C34.9494 8.77091 35.0144 9.09734 35.0143 9.427C35.0144 9.75676 34.9495 10.0833 34.8233 10.388C34.6971 10.6926 34.5121 10.9694 34.2788 11.2025L33.0531 12.4282C33.7704 13.6407 34.3132 14.9483 34.6654 16.3124H36.3957C37.7821 16.3124 38.9061 17.4365 38.9061 18.8228V21.3333C38.9061 22.7196 37.7821 23.8437 36.3957 23.8437H34.6654C34.3132 25.2078 33.7704 26.5154 33.0531 27.7279L34.2788 28.9536C34.5121 29.1867 34.6971 29.4635 34.8233 29.7681C34.9495 30.0728 35.0144 30.3994 35.0143 30.7291C35.0144 31.0588 34.9494 31.3852 34.8232 31.6897C34.697 31.9943 34.512 32.271 34.2788 32.504L32.504 34.2788C32.271 34.512 31.9943 34.697 31.6897 34.8232C31.3852 34.9494 31.0588 35.0144 30.7291 35.0143C30.3994 35.0144 30.0728 34.9495 29.7681 34.8233C29.4635 34.6971 29.1867 34.5121 28.9536 34.2788L27.728 33.0531C26.5154 33.7705 25.2078 34.3132 23.8437 34.6654V36.3957C23.8437 37.7821 22.7196 38.9061 21.3332 38.9061H18.8228C17.4364 38.9061 16.3125 37.7821 16.3125 36.3957V34.6654C14.9483 34.3132 13.6407 33.7705 12.4282 33.0531L11.2025 34.2788C10.9694 34.5121 10.6926 34.6971 10.388 34.8233C10.0833 34.9495 9.75677 35.0144 9.42701 35.0143C9.09735 35.0144 8.77092 34.9494 8.46638 34.8232C8.16184 34.697 7.88516 34.512 7.65217 34.2788L5.87725 32.504C5.64406 32.271 5.45907 31.9943 5.33286 31.6897C5.20665 31.3852 5.1417 31.0588 5.14171 30.7291C5.14164 30.3994 5.20656 30.0728 5.33277 29.7681C5.45898 29.4635 5.644 29.1867 5.87725 28.9536L7.10303 27.7279C6.38566 26.5154 5.84286 25.2078 5.49069 23.8437H3.76046C2.37406 23.8437 1.25 22.7196 1.25 21.3333V18.8228C1.25 17.4365 2.37406 16.3124 3.76046 16.3124H5.49069C5.84286 14.9483 6.38566 13.6407 7.10303 12.4282L5.87725 11.2025C5.644 10.9694 5.45897 10.6926 5.33276 10.3879C5.20655 10.0833 5.14163 9.75676 5.14171 9.427C5.1417 9.09735 5.20665 8.77092 5.33286 8.46639C5.45907 8.16185 5.64406 7.88517 5.87725 7.65216L7.65217 5.87724C7.88517 5.64404 8.16185 5.45905 8.46639 5.33284C8.77093 5.20663 9.09735 5.14168 9.42701 5.1417C9.75676 5.14163 10.0833 5.20655 10.3879 5.33277C10.6926 5.45898 10.9694 5.64399 11.2025 5.87724L12.4282 7.10302C13.6407 6.38563 14.9483 5.84284 16.3125 5.49068V3.76038C16.3125 2.37397 17.4364 1.24999 18.8228 1.24999H21.3332C22.7196 1.24999 23.8437 2.37397 23.8437 3.76038V5.49068Z" stroke="#E6AA12" stroke-width="2.5" stroke-miterlimit="10" stroke-linecap="round" stroke-linejoin="round"/>
<path d="M20.0781 12.5469C24.2347 12.5469 27.6093 15.9215 27.6093 20.0781C27.6093 24.2346 24.2347 27.6093 20.0781 27.6093C15.9215 27.6093 12.5469 24.2346 12.5469 20.0781C12.5469 15.9215 15.9215 12.5469 20.0781 12.5469Z" stroke="#E6AA12" stroke-width="2.5" stroke-miterlimit="10" stroke-linecap="round" stroke-linejoin="round"/>
</g>
<defs>
<clipPath id="clip0_971_4242">
<rect width="40" height="40" fill="white"/>
</clipPath>
</defs>
</svg>

<svg width="40" height="40" fill="none" xmlns="http://www.w3.org/2000/svg"><g clip-path="url(#clip0_971_4242)" stroke="#E6AA12" stroke-width="2.5" stroke-miterlimit="10" stroke-linecap="round" stroke-linejoin="round"><path d="M23.844 5.49c1.364.353 2.671.896 3.884 1.613l1.226-1.226a2.51 2.51 0 0 1 3.55 0l1.775 1.775a2.509 2.509 0 0 1 0 3.55l-1.226 1.226a14.987 14.987 0 0 1 1.612 3.884h1.73a2.51 2.51 0 0 1 2.511 2.51v2.511a2.51 2.51 0 0 1-2.51 2.51h-1.73a14.987 14.987 0 0 1-1.613 3.885l1.226 1.226a2.509 2.509 0 0 1 0 3.55l-1.775 1.775a2.508 2.508 0 0 1-3.55 0l-1.226-1.226a14.986 14.986 0 0 1-3.884 1.612v1.73a2.51 2.51 0 0 1-2.51 2.511h-2.511a2.51 2.51 0 0 1-2.51-2.51v-1.73a14.983 14.983 0 0 1-3.885-1.613l-1.226 1.226a2.509 2.509 0 0 1-3.55 0l-1.775-1.775a2.509 2.509 0 0 1 0-3.55l1.226-1.226a14.984 14.984 0 0 1-1.612-3.884H3.76a2.51 2.51 0 0 1-2.511-2.51v-2.511a2.51 2.51 0 0 1 2.51-2.51h1.73a14.984 14.984 0 0 1 1.613-3.885l-1.226-1.226a2.51 2.51 0 0 1 0-3.55l1.775-1.775a2.509 2.509 0 0 1 3.55 0l1.226 1.226a14.982 14.982 0 0 1 3.884-1.612V3.76a2.51 2.51 0 0 1 2.51-2.511h2.511a2.51 2.51 0 0 1 2.51 2.51v1.73z"/><path d="M20.078 12.547a7.535 7.535 0 0 1 7.531 7.531 7.535 7.535 0 0 1-7.53 7.531 7.535 7.535 0 0 1-7.532-7.53 7.535 7.535 0 0 1 7.531-7.532z"/></g><defs><clipPath id="clip0_971_4242"><path fill="#fff" d="M0 0h40v40H0z"/></clipPath></defs></svg>
